**kern	**kern	**dynam
*part1	*part1	*part1
*staff2	*staff1	*
*I"Piano	*	*
*clefF4	*clefG2	*
*k[b-e-a-d-g-]	*k[b-e-a-d-g-]	*
=1	=1	=1
*	*^	*
8AAAn	(4cc]	16ccLL	.
.	.	16f 16an	.
16r	.	16cJJ	.
16ryy	.	16cLL<	.
8ryy	8ff	16F< 16An<	.
.	.	16CJJ<)	.
=	=	=	=
8CC	(4.ff	16ffLL	mf
.	.	16b- 16cc	.
16r	.	16fJJ	.
16ryy	.	16fLL<	.
8ryy	.	16B-< 16c<	.
.	.	16GnJJ<)	.
=	=	=	=
8r	(4.een	16eeLL	.
.	.	16b- 16cc	.
16r	.	16enJJ	.
16ryy	.	16enLL<	.
8ryy	.	16B-< 16c<	.
.	.	16GnJJ<)	.
=	=	=	=
8FF	(4ff	16ffLL	.
.	.	16an 16cc	.
16r	.	16fJJ	.
8ryy	.	16ccLL	.
.	8rdd	16f 16a	.
16ryy	.	16cJJ)	.
=	=	=	=
8r	4.ryy	(16anLL	.
.	.	16c 16f	.
16r	.	16AnJJ	.
16ryy	.	16fLL<	.
8ryy	.	16An< 16c<	.
.	.	16FJJ<)	.
=	=	=	=
8E-	(4.g-	16g-LL	p
.	.	16e-	.
16r	.	16B-JJ	.
16ryy	.	16e-LL<	.
8ryy	.	16G-< 16B-<	.
.	.	16E-JJ<)	.
=	=	=	=
8D-	(4.b-	16b-LL	.
.	.	16e- 16g-	.
16r	.	16B-JJ	.
16ryy	.	16e-LL<	.
8ryy	.	16G-< 16B-<	.
.	.	16E-JJ<)	.
*	*v	*v	*
=	=	=
*-	*-	*-
!!!system-decoration: {(s1,s2)}
!!!RDF**kern: < = below
